img/fastfetch.svg

<svg xmlns="http://www.w3.org/2000/svg" width="500" height="500" style="shape-rendering:geometricPrecision;text-rendering:geometricPrecision;image-rendering:optimizeQuality;fill-rule:evenodd;clip-rule:evenodd"><path fill="#66635a" d="M392.5 329.5v1h-32v-66h-33v-65h-33v-98h-32v33h-33v-33h-32v98h-33v65h-33v66h-32v-98q15.873.48 31.5-1 .75-31.996.5-64 16.372.48 32.5-1 .75-48.498.5-97 16.008.25 32-.5a269 269 0 0 0 1-32.5h97q-.25 16.008.5 32a269 269 0 0 0 32.5 1q-.25 48.502.5 97a269 269 0 0 0 32.5 1q-.25 32.004.5 64a253 253 0 0 0 31.5 1z" style="opacity:1"/><path fill="#fefefd" d="M229.5 134.5h-32v-33h32zm65 0h-32v-33h32z" style="opacity:1"/><path fill="#eacc9c" d="M197.5 134.5h97v65h-97z" style="opacity:1"/><path fill="#f4ca8c" d="M201.5 136.5q45.502-.25 91 .5a954 954 0 0 1 1 61.5h-95q-.5-30.017 1-60 1.533-.533 2-2" style="opacity:1"/><path fill="#fefefe" d="M197.5 199.5h130v65h33v66h-33v31q-.512 1.258-2 1h-31v66h-96q.484-34.068-1-68-15.769 1.681-32 0 1.041-13.47 2-27a15.2 15.2 0 0 0-1.5-6 303 303 0 0 1-34.5 1v-64h33v-65z" style="opacity:1"/><path fill="#e8cba0" d="M360.5 330.5h32a1611 1611 0 0 1-57 1.5q-3.266 1.803-7 1.5.49 14.272-1 28v-31z" style="opacity:1"/><path fill="#f4ca8d" d="M99.5 329.5v1q.627 1.083 2 1.5l60 1q1.974 13.16 0 26.5-2.106-2.249-2 1l1 2q2.047-1.96 4 0a9949 9949 0 0 0 31.5 2q.75 46.998.5 94h-96q.49-15.271-1-30-.549-1.792-2.5-2a231 231 0 0 1-29.5 1v-96q15.77.491 31-1 0-1 1-1m293 0q1 0 1 1 15.23 1.491 31 1v95a4251 4251 0 0 1-33.5 0q-1.416 1.144-1.5 3 1.424 14.45 1 29h-94a2256 2256 0 0 1-1-95q15.271.49 30-1 1.488.258 2-1 1.49-13.728 1-28 3.734.303 7-1.5 28.756-.252 57-1.5z" style="opacity:1"/><path fill="#eecb9a" d="M99.5 330.5h65v32q-1.953-1.96-4 0l-1-2q-.106-3.249 2-1 1.974-13.34 0-26.5l-60-1q-1.373-.417-2-1.5" style="opacity:1"/><path fill="#e7cba6" d="M98.5 330.5q-15.23 1.491-31 1v96a231 231 0 0 0 29.5-1q1.951.208 2.5 2h-33v-98z" style="opacity:1"/><path fill="#eacb9f" d="M164.5 362.5h33v98h-98v-32q1.49 14.729 1 30h96q.25-47.002-.5-94a9949 9949 0 0 1-31.5-2" style="opacity:1"/><path fill="#fffced" d="M198.5 428.5h-1v-66h-33v-32h-33v-2a303 303 0 0 0 34.5-1 15.2 15.2 0 0 1 1.5 6q-.959 13.53-2 27 16.231 1.681 32 0a1174 1174 0 0 1 1 68" style="opacity:1"/><path fill="#65635a" d="M197.5 428.5h97v32h-97z" style="opacity:1"/><path fill="#edcb99" d="M393.5 330.5h32v98q-16.768-.492-33 1-1.49 14.729-1 30-47.757.498-95-1h94q.424-14.55-1-29 .084-1.856 1.5-3 16.436.066 33.5 0v-95q-15.77.491-31-1" style="opacity:1"/><path fill="#e8cca6" d="M325.5 362.5q-14.729 1.49-30 1-.497 47.757 1 95 47.243 1.498 95 1-.49-15.271 1-30v31h-98v-98z" style="opacity:.992"/></svg>

<?xml version="1.0" encoding="UTF-8"?>
<!DOCTYPE svg PUBLIC "-//W3C//DTD SVG 1.1//EN" "http://www.w3.org/Graphics/SVG/1.1/DTD/svg11.dtd">
<svg xmlns="http://www.w3.org/2000/svg" version="1.1" width="500px" height="500px" style="shape-rendering:geometricPrecision; text-rendering:geometricPrecision; image-rendering:optimizeQuality; fill-rule:evenodd; clip-rule:evenodd" xmlns:xlink="http://www.w3.org/1999/xlink">
<g><path style="opacity:1" fill="#66635a" d="M 392.5,329.5 C 392.5,329.833 392.5,330.167 392.5,330.5C 381.833,330.5 371.167,330.5 360.5,330.5C 360.5,308.5 360.5,286.5 360.5,264.5C 349.5,264.5 338.5,264.5 327.5,264.5C 327.5,242.833 327.5,221.167 327.5,199.5C 316.5,199.5 305.5,199.5 294.5,199.5C 294.5,177.833 294.5,156.167 294.5,134.5C 294.5,123.5 294.5,112.5 294.5,101.5C 283.833,101.5 273.167,101.5 262.5,101.5C 262.5,112.5 262.5,123.5 262.5,134.5C 251.5,134.5 240.5,134.5 229.5,134.5C 229.5,123.5 229.5,112.5 229.5,101.5C 218.833,101.5 208.167,101.5 197.5,101.5C 197.5,112.5 197.5,123.5 197.5,134.5C 197.5,156.167 197.5,177.833 197.5,199.5C 186.5,199.5 175.5,199.5 164.5,199.5C 164.5,221.167 164.5,242.833 164.5,264.5C 153.5,264.5 142.5,264.5 131.5,264.5C 131.5,285.833 131.5,307.167 131.5,328.5C 131.5,329.167 131.5,329.833 131.5,330.5C 120.833,330.5 110.167,330.5 99.5,330.5C 99.5,330.167 99.5,329.833 99.5,329.5C 99.5,297.167 99.5,264.833 99.5,232.5C 110.082,232.82 120.582,232.487 131,231.5C 131.5,210.169 131.667,188.836 131.5,167.5C 142.415,167.82 153.248,167.487 164,166.5C 164.5,134.168 164.667,101.835 164.5,69.5C 175.172,69.6665 185.839,69.4998 196.5,69C 197.487,58.2483 197.82,47.415 197.5,36.5C 229.833,36.5 262.167,36.5 294.5,36.5C 294.333,47.1719 294.5,57.8385 295,68.5C 305.752,69.487 316.585,69.8203 327.5,69.5C 327.333,101.835 327.5,134.168 328,166.5C 338.752,167.487 349.585,167.82 360.5,167.5C 360.333,188.836 360.5,210.169 361,231.5C 371.418,232.487 381.918,232.82 392.5,232.5C 392.5,264.833 392.5,297.167 392.5,329.5 Z"/></g>
<g><path style="opacity:1" fill="#fefefd" d="M 229.5,134.5 C 218.833,134.5 208.167,134.5 197.5,134.5C 197.5,123.5 197.5,112.5 197.5,101.5C 208.167,101.5 218.833,101.5 229.5,101.5C 229.5,112.5 229.5,123.5 229.5,134.5 Z"/></g>
<g><path style="opacity:1" fill="#fefefd" d="M 294.5,134.5 C 283.833,134.5 273.167,134.5 262.5,134.5C 262.5,123.5 262.5,112.5 262.5,101.5C 273.167,101.5 283.833,101.5 294.5,101.5C 294.5,112.5 294.5,123.5 294.5,134.5 Z"/></g>
<g><path style="opacity:1" fill="#eacc9c" d="M 197.5,134.5 C 208.167,134.5 218.833,134.5 229.5,134.5C 240.5,134.5 251.5,134.5 262.5,134.5C 273.167,134.5 283.833,134.5 294.5,134.5C 294.5,156.167 294.5,177.833 294.5,199.5C 262.167,199.5 229.833,199.5 197.5,199.5C 197.5,177.833 197.5,156.167 197.5,134.5 Z"/></g>
<g><path style="opacity:1" fill="#f4ca8c" d="M 201.5,136.5 C 231.835,136.333 262.168,136.5 292.5,137C 293.493,157.424 293.827,177.924 293.5,198.5C 261.833,198.5 230.167,198.5 198.5,198.5C 198.167,178.489 198.5,158.489 199.5,138.5C 200.522,138.145 201.189,137.478 201.5,136.5 Z"/></g>
<g><path style="opacity:1" fill="#fefefe" d="M 197.5,199.5 C 229.833,199.5 262.167,199.5 294.5,199.5C 305.5,199.5 316.5,199.5 327.5,199.5C 327.5,221.167 327.5,242.833 327.5,264.5C 338.5,264.5 349.5,264.5 360.5,264.5C 360.5,286.5 360.5,308.5 360.5,330.5C 349.5,330.5 338.5,330.5 327.5,330.5C 327.5,340.833 327.5,351.167 327.5,361.5C 327.158,362.338 326.492,362.672 325.5,362.5C 315.167,362.5 304.833,362.5 294.5,362.5C 294.5,384.5 294.5,406.5 294.5,428.5C 262.5,428.5 230.5,428.5 198.5,428.5C 198.823,405.788 198.489,383.121 197.5,360.5C 186.987,361.621 176.321,361.621 165.5,360.5C 166.194,351.52 166.861,342.52 167.5,333.5C 167.413,331.408 166.913,329.408 166,327.5C 154.581,328.488 143.081,328.821 131.5,328.5C 131.5,307.167 131.5,285.833 131.5,264.5C 142.5,264.5 153.5,264.5 164.5,264.5C 164.5,242.833 164.5,221.167 164.5,199.5C 175.5,199.5 186.5,199.5 197.5,199.5 Z"/></g>
<g><path style="opacity:1" fill="#e8cba0" d="M 360.5,330.5 C 371.167,330.5 381.833,330.5 392.5,330.5C 373.671,331.332 354.671,331.832 335.5,332C 333.323,333.202 330.989,333.702 328.5,333.5C 328.827,343.015 328.494,352.348 327.5,361.5C 327.5,351.167 327.5,340.833 327.5,330.5C 338.5,330.5 349.5,330.5 360.5,330.5 Z"/></g>
<g><path style="opacity:1" fill="#f4ca8d" d="M 99.5,329.5 C 99.5,329.833 99.5,330.167 99.5,330.5C 99.9175,331.222 100.584,331.722 101.5,332C 121.5,332.333 141.5,332.667 161.5,333C 162.816,341.774 162.816,350.607 161.5,359.5C 160.096,358.001 159.43,358.334 159.5,360.5C 159.833,361.167 160.167,361.833 160.5,362.5C 161.865,361.193 163.198,361.193 164.5,362.5C 174.902,363.177 185.402,363.844 196,364.5C 196.5,395.832 196.667,427.165 196.5,458.5C 164.5,458.5 132.5,458.5 100.5,458.5C 100.827,448.319 100.494,438.319 99.5,428.5C 99.1344,427.305 98.301,426.639 97,426.5C 87.2071,427.463 77.3737,427.796 67.5,427.5C 67.5,395.5 67.5,363.5 67.5,331.5C 78.0135,331.828 88.3468,331.494 98.5,330.5C 98.5,329.833 98.8333,329.5 99.5,329.5 Z"/></g>
<g><path style="opacity:1" fill="#f4ca8d" d="M 392.5,329.5 C 393.167,329.5 393.5,329.833 393.5,330.5C 403.653,331.494 413.986,331.828 424.5,331.5C 424.5,363.167 424.5,394.833 424.5,426.5C 413.124,426.544 401.957,426.544 391,426.5C 390.056,427.263 389.556,428.263 389.5,429.5C 390.449,439.133 390.783,448.8 390.5,458.5C 359.167,458.5 327.833,458.5 296.5,458.5C 295.502,427.004 295.168,395.338 295.5,363.5C 305.681,363.827 315.681,363.494 325.5,362.5C 326.492,362.672 327.158,362.338 327.5,361.5C 328.494,352.348 328.827,343.015 328.5,333.5C 330.989,333.702 333.323,333.202 335.5,332C 354.671,331.832 373.671,331.332 392.5,330.5C 392.5,330.167 392.5,329.833 392.5,329.5 Z"/></g>
<g><path style="opacity:1" fill="#eecb9a" d="M 99.5,330.5 C 110.167,330.5 120.833,330.5 131.5,330.5C 142.5,330.5 153.5,330.5 164.5,330.5C 164.5,341.167 164.5,351.833 164.5,362.5C 163.198,361.193 161.865,361.193 160.5,362.5C 160.167,361.833 159.833,361.167 159.5,360.5C 159.43,358.334 160.096,358.001 161.5,359.5C 162.816,350.607 162.816,341.774 161.5,333C 141.5,332.667 121.5,332.333 101.5,332C 100.584,331.722 99.9175,331.222 99.5,330.5 Z"/></g>
<g><path style="opacity:1" fill="#e7cba6" d="M 98.5,330.5 C 88.3468,331.494 78.0135,331.828 67.5,331.5C 67.5,363.5 67.5,395.5 67.5,427.5C 77.3737,427.796 87.2071,427.463 97,426.5C 98.301,426.639 99.1344,427.305 99.5,428.5C 88.5,428.5 77.5,428.5 66.5,428.5C 66.5,395.833 66.5,363.167 66.5,330.5C 77.1667,330.5 87.8333,330.5 98.5,330.5 Z"/></g>
<g><path style="opacity:1" fill="#eacb9f" d="M 164.5,362.5 C 175.5,362.5 186.5,362.5 197.5,362.5C 197.5,384.5 197.5,406.5 197.5,428.5C 197.5,439.167 197.5,449.833 197.5,460.5C 164.833,460.5 132.167,460.5 99.5,460.5C 99.5,449.833 99.5,439.167 99.5,428.5C 100.494,438.319 100.827,448.319 100.5,458.5C 132.5,458.5 164.5,458.5 196.5,458.5C 196.667,427.165 196.5,395.832 196,364.5C 185.402,363.844 174.902,363.177 164.5,362.5 Z"/></g>
<g><path style="opacity:1" fill="#fffced" d="M 198.5,428.5 C 198.167,428.5 197.833,428.5 197.5,428.5C 197.5,406.5 197.5,384.5 197.5,362.5C 186.5,362.5 175.5,362.5 164.5,362.5C 164.5,351.833 164.5,341.167 164.5,330.5C 153.5,330.5 142.5,330.5 131.5,330.5C 131.5,329.833 131.5,329.167 131.5,328.5C 143.081,328.821 154.581,328.488 166,327.5C 166.913,329.408 167.413,331.408 167.5,333.5C 166.861,342.52 166.194,351.52 165.5,360.5C 176.321,361.621 186.987,361.621 197.5,360.5C 198.489,383.121 198.823,405.788 198.5,428.5 Z"/></g>
<g><path style="opacity:1" fill="#65635a" d="M 197.5,428.5 C 197.833,428.5 198.167,428.5 198.5,428.5C 230.5,428.5 262.5,428.5 294.5,428.5C 294.5,439.167 294.5,449.833 294.5,460.5C 262.167,460.5 229.833,460.5 197.5,460.5C 197.5,449.833 197.5,439.167 197.5,428.5 Z"/></g>
<g><path style="opacity:1" fill="#edcb99" d="M 393.5,330.5 C 404.167,330.5 414.833,330.5 425.5,330.5C 425.5,363.167 425.5,395.833 425.5,428.5C 414.321,428.172 403.321,428.505 392.5,429.5C 391.506,439.319 391.173,449.319 391.5,459.5C 359.662,459.832 327.996,459.498 296.5,458.5C 327.833,458.5 359.167,458.5 390.5,458.5C 390.783,448.8 390.449,439.133 389.5,429.5C 389.556,428.263 390.056,427.263 391,426.5C 401.957,426.544 413.124,426.544 424.5,426.5C 424.5,394.833 424.5,363.167 424.5,331.5C 413.986,331.828 403.653,331.494 393.5,330.5 Z"/></g>
<g><path style="opacity:0.992" fill="#e8cca6" d="M 325.5,362.5 C 315.681,363.494 305.681,363.827 295.5,363.5C 295.168,395.338 295.502,427.004 296.5,458.5C 327.996,459.498 359.662,459.832 391.5,459.5C 391.173,449.319 391.506,439.319 392.5,429.5C 392.5,439.833 392.5,450.167 392.5,460.5C 359.833,460.5 327.167,460.5 294.5,460.5C 294.5,449.833 294.5,439.167 294.5,428.5C 294.5,406.5 294.5,384.5 294.5,362.5C 304.833,362.5 315.167,362.5 325.5,362.5 Z"/></g>
</svg>
